X:3924
T:Maid of the Mill
O:england
M:6/8
C:
S:Sharp from Timothy Howard 1909 Sep 8
N:from Howard Mitchell of Manchester MM, from Roger Nichols of Bedford MM
A:Brackley
R:Jig
P:AB
L:1/8
K:G
I:speed 300
P:A
|:G>FG B>AB|ABc d3|E>FE E2 D|G3 G3:|\
P:B
d>ed d2 B|c>dc c3|E>FE E2 D|G3 G3|\
d2 d d3|B2 B B3|E>FE E2 D|G3 G3||


